FINK
CUT[OB AUCH TRUEBE SEI DER HIMMEL]
REG[Europa, Mitteleuropa, Deutschland]
KEY[F0330  08  C 4/4]
MEL[1_-5_  3_.21_-7_  1_1_
    -7_1_  2_3_4_3_  2__
    3_2_  2_2_2_34#  5_2_
    321-7  -7-6-71-7_-6_  -5__
    -5-72-7  1_1_1_23  2_2_
    -5-72-7  1_1_1_23  2__
    5_.4  3_3_3_3_  4_4_
    432_  1_1_1-7-6-7  1__ //] >>
FCT[Jugend - Lied, Belehrung, Vertrauen]
